X: 07021
T: COLIN TOLMAN
C: Bob McQuillen 17 Mar 89
B: Bob's Note Book 7 #21
%R: reel
Z: 2020 John Chambers <jc:trillian.mit.edu>
M: C
L: 1/8
K: D
FE \
| D2DF EDFE | DFAd f2df | afba fdfe | dfed BAFE |
| D2DF EDFE | DFAd faba | fded BdAF | EDEF D2  :|
|: fe \
| dfab afba | fafd B2dB | AFAB dfed | BdAF EDFE |
| DFAB ABde | faba fdfe | dfed BAdf | afef d2  :|
%%begintext align
%% Colin is fiddler Harvey's son,
%% from Nelson, N.H., and I must say he is doing a bang-up
%% job learning to play fiddle tunes on his drum set.
%% Get your dad to play this tune for you, Colin!
%%endtext

%%sep 1 1 500

%%sep 1 1 500

